domfk/img/advantages/icon-2.svg

<svg width="34" height="34" viewBox="0 0 34 34" fill="none" xmlns="http://www.w3.org/2000/svg">
<path d="M31.2834 21.7666L33.6667 19.3833L31.2834 16.9999L25.3334 22.9499L11.05 8.66659L17 2.71659L14.6167 0.333252L12.2334 2.71659L9.85004 0.333252L6.28337 3.89992L3.90004 1.51659L1.51671 3.89992L3.90004 6.28325L0.333374 9.84992L2.71671 12.2333L0.333374 14.6166L2.71671 16.9999L8.66671 11.0499L22.95 25.3333L17 31.2833L19.3834 33.6666L21.7667 31.2833L24.15 33.6666L27.7167 30.0999L30.1 32.4833L32.4834 30.0999L30.1 27.7166L33.6667 24.1499L31.2834 21.7666Z" fill="#333333"/>
</svg>

<svg width="34" height="34" fill="none" xmlns="http://www.w3.org/2000/svg"><path d="M31.283 21.767l2.384-2.384L31.283 17l-5.95 5.95L11.05 8.667 17 2.717 14.617.333l-2.384 2.384L9.85.333 6.283 3.9 3.9 1.517 1.517 3.9 3.9 6.283.333 9.85l2.384 2.383-2.384 2.384L2.717 17l5.95-5.95L22.95 25.333 17 31.283l2.383 2.384 2.384-2.384 2.383 2.384 3.567-3.567 2.383 2.383 2.383-2.383-2.383-2.383 3.567-3.567-2.384-2.383z" fill="#333"/></svg>
